X: 103
T: Pollonesse #103
M: 3/4
L: 1/16
R: Pollonesse
K: Bb
Q: 110
d2e2 f4f4|(f2b2) (b2d'2)(d'2f2)|gfed e4e4|e2a2 a2c'2 c'2e2|dcAc B2F2 D2B,2| dcAc B2F2 D2B,2|
B,FcF B,FcF B,FcF|B,FdF B,FdF B,FdF|B,FcF B,FcF B,FcF|B,FdF B,FdF B,FdF|
d2e2 f2f2 f2B'2|d'c'ba a4b4:|

